X: 1457
T: Nev`eser Peşrev
C: Yusuf Paşa
O: Turkey
F: http://compmusic.upf.edu/node/140
N: neveser--pesrev--hafif--cankurtaran--neyzen_yusuf_pasa
N: makam= neveser
N: form= pesrev
N: usul= hafif = 32/4
M: 32/4
L: 1/16
K: C _7/8B _7/8e ^f ^c
Q: 1/4=84
%%MIDI tuningsystem comma53
d6 e2 d2 e2 d2 c2  | B3 A B2 c2 d6 e2  | \
w:  1. HANE  |   | 
f4 e2 d2 e4 d2 c2  | d c d e d2 c2 B3 A G4  | 
w:   |   | 
d6 e2 d4 c4  | d2 e2 f2 g2 f3 e d2 f2  | \
w:   |   | 
e3 d c2 e2 d3 c B2 c2  | d6 c2 d e d c d4  | 
w:   |   | 
g6 f2 e3 d c2 d2  | e2 g2 f2 e2 d3 c B4  | \
w:  TESLİM  |   | 
c3 d e3 d d3 c c3 B  | 
w:   | 
c2 e2 d2 c2 d c B A G4  | d8 d2 c2 B2 A2  | \
w:   |   | 
c8 c2 B2 A2 G2  | A2 B c B2 A2 A2 G2 G2 F2  | 
w:   |   | 
G6 A2 B c B A B4  | B6 A2 G3 F G2 A2  | \
w:  2. HANE  |   | 
B4 A2 G2 F2 E2 D4  | F2 G2 A2 B2 A2 G2 F2 G2  | 
w:   |   | 
A2 B2 A2 B2 c4 d4  | f4 e2 d2 e4 d2 c2  | \
w:   |   | 
B2 c2 d2 e2 c4 d4  | d2 a2 g2 f2 f g f e e f e d  | 
w:   |   | 
d6 f2 g4 z4  | g6 f2 e3 d c2 d2  | e2 g2 f2 e2 d3 c B4  | \
w:   |  TESLİM  |   | 
c3 d e3 d d3 c c3 B  | 
w:   | 
c2 e2 d2 c2 d c B A G4  | d8 d2 c2 B2 A2  | \
w:   |   | 
c8 c2 B2 A2 G2  | A2 B c B2 A2 A2 G2 G2 F2  | 
w:   |   | 
G6 g2 f g a f g4  | g6 f2 g2 f2 g2 a2  | \
w:  3. HANE  |   | 
=c'2 b2 a2 g2 f3 e d4  | e2 f2 e4 f2 g2 f2 a2  | 
w:   |   | 
f4 g4 g4 f2 g2  | a8 b2 a2 b2 =c'2  | \
w:   |   | 
b2 a2 g2 b2 a2 g2 f2 e2  | d2 d'2 =c'2 b2 a2 g2 f2 e2  | 
w:   |   | 
d e f4 e d d4 z4  | g6 f2 e3 d c2 d2  | \
w:   |  TESLİM  | 
e2 g2 f2 e2 d3 c B4  | c3 d e3 d d3 c c3 B  | 
w:   |   | 
c2 e2 d2 c2 d c B A G4  | d8 d2 c2 B2 A2  | \
w:   |   | 
c8 c2 B2 A2 G2  | A2 B c B2 A2 A2 G2 G2 F2  | 
w:   |   | 
G6 A2 F2 G2 A4  | A2 G2 F2 G2 F4 G4  | \
w:  4. HANE  |   | 
A2 B2 A2 c2 c B B A B4  | A2 B2 c2 d2 c2 B2 A2 G2  | 
w:   |   | 
A2 c2 B2 A2 A G G F G4  | G6 A2 B2 c2 d2 e2  | \
w:   |   | 
e3 d d3 c f e d c d4  | 
w:   | 
f6 g2 f3 e e3 d  | c2 d2 e f e d d4 z4  | \
w:   |   | 
g6 f2 e3 d c2 d2  | e2 g2 f2 e2 d3 c B4  | 
w:  TESLİM  |   | 
c3 d e3 d d3 c c3 B  | c2 e2 d2 c2 d c B A G4  | \
w:   |   | 
d8 d2 c2 B2 A2  | 
w:   | 
c8 c2 B2 A2 G2  | A2 B c B2 A2 A2 G2 G2 F2  | \
w:   |   | 
G12 z4  | |


